public/Acquisti.svg

<svg width="635" height="635" viewBox="0 0 635 635" fill="none" xmlns="http://www.w3.org/2000/svg">
<g clip-path="url(#clip0_171_138)">
<path d="M635.001 215.851L448.441 282.791C448.441 282.791 447.441 323.961 444.441 333.401C441.441 342.841 439.001 374.661 432.001 385.071C425.001 395.481 386.681 425.721 386.681 425.721C386.681 425.721 376.511 432.171 365.881 437.721C355.251 443.271 346.101 430.111 343.271 424.721C338.641 415.861 339.941 403.011 342.361 399.251C346.701 392.461 366.531 376.431 369.531 369.251C372.531 362.071 363.471 331.791 357.531 324.741C354.191 320.741 341.671 321.651 328.531 324.641L347.691 131.001L635.001 39.8008V215.851Z" fill="white"/>
<path d="M329.691 329.001C335.042 327.697 340.502 326.89 346.001 326.591C348.571 326.511 352.431 326.141 354.451 327.991C356.021 329.441 357.061 332.581 357.881 334.471C359.287 337.786 360.515 341.174 361.561 344.621C363.451 350.681 365.281 357.111 365.621 363.481C365.891 368.481 363.191 371.071 359.791 374.681C354.791 379.991 349.371 384.881 344.311 390.121C340.311 394.231 337.311 398.011 336.311 403.791C333.971 417.641 339.471 434.091 352.311 441.231C360.511 445.781 367.311 442.231 374.751 438.061C379.871 435.191 385.261 432.391 389.951 428.861C396.831 423.701 403.391 418.041 409.951 412.481C418.611 405.141 428.331 397.681 435.111 388.481C442.651 378.231 443.701 362.841 445.711 350.691C447.721 338.541 450.541 326.921 451.461 314.631C452.251 304.041 452.721 293.411 452.981 282.801L449.681 287.131L512.481 264.611L613.161 228.481L636.241 220.201C641.651 218.261 639.311 209.561 633.841 211.531L571.001 234.001L470.331 270.171L447.251 278.451C446.315 278.737 445.492 279.309 444.898 280.088C444.304 280.867 443.969 281.812 443.941 282.791C443.721 291.544 443.341 300.291 442.801 309.031C442.441 314.791 442.081 320.591 441.291 326.311C440.721 330.421 439.461 334.361 438.691 338.431C436.131 351.841 435.371 366.431 430.031 379.171C426.301 388.031 416.531 394.881 409.521 400.991C401.521 407.991 393.351 414.681 385.071 421.291C384.561 421.701 384.071 422.141 383.521 422.521C385.381 421.211 383.611 422.371 383.151 422.621C381.601 423.481 380.151 424.491 378.601 425.401C374.748 427.701 370.861 429.924 366.941 432.071C362.941 434.241 359.881 435.551 355.821 432.861C345.821 426.221 339.821 408.351 348.531 398.711C353.011 393.711 358.031 389.241 362.761 384.491C366.551 380.681 371.161 376.491 373.421 371.491C375.791 366.271 374.371 359.671 373.301 354.301C371.806 346.813 369.586 339.488 366.671 332.431C364.581 327.361 362.241 321.151 356.761 318.971C347.861 315.431 336.221 318.311 327.301 320.271C321.651 321.511 324.041 330.191 329.691 328.951V329.001Z" fill="black"/>
<path d="M377.641 490.62C394.573 484.899 401.628 460.521 393.4 436.17C385.172 411.819 364.776 396.717 347.845 402.438C330.913 408.159 323.858 432.537 332.086 456.888C340.314 481.239 360.71 496.341 377.641 490.62Z" fill="white"/>
<path d="M378.459 493.48C395.689 487.16 401.199 467.37 399.559 450.6C397.739 432 387.999 412.1 371.209 402.67C357.129 394.77 340.409 398.01 331.829 412.14C321.629 428.94 324.979 451.83 333.829 468.4C342.169 483.99 359.549 499.4 378.449 493.48C382.119 492.34 380.549 486.55 376.849 487.7C362.999 492 349.939 482 342.489 471.09C333.169 457.45 328.669 438.88 333.629 422.79C337.809 409.28 350.029 400.6 364.019 405.89C378.749 411.46 388.239 427.21 391.959 441.8C395.899 457.25 394.579 481.2 376.859 487.7C373.269 489 374.819 494.82 378.459 493.48Z" fill="black"/>
<path d="M635 39.8008L228.5 168.801C228.5 168.801 101 228.561 62.8203 255.481C57.3203 259.361 43.4203 267.001 43.0003 273.741C42.4003 284.071 59.9503 295.341 80.4503 291.391C100.95 287.441 183.26 237.601 183.26 237.601C183.26 237.601 73.0003 307.621 43.3503 339.001C40.5803 341.931 34.4303 348.551 34.6503 352.581C35.1703 362.011 50.6503 372.411 68.9403 368.491C87.2303 364.571 196.4 295.051 196.4 295.051C196.4 295.051 109.2 367.821 80.1103 392.051C74.6103 396.631 59.4903 403.331 58.1103 410.351C55.3003 424.401 75.2703 443.131 113.41 425.431C151.55 407.731 247 320.511 247 320.511C247 320.511 226.52 374.121 224.57 389.811C222.62 405.501 232.7 418.281 240.38 422.171C248.06 426.061 315.38 459.691 334.98 458.431C354.58 457.171 333.9 424.011 329.34 419.621C324.78 415.231 278.19 386.621 278.19 386.621C278.19 386.621 284.53 342.671 300.48 334.321C305.82 331.521 320.96 326.741 328.79 324.541" fill="white"/>
<path d="M633.8 35.4603L604.8 44.6503L532.07 67.7403L436.75 98.0003L340.11 128.66L263.67 152.9C251.75 156.68 239.61 160.05 227.84 164.26C223.5 165.82 219.35 168.13 215.19 170.12C201.39 176.7 187.627 183.367 173.9 190.12C139.39 207.12 104.5 224.12 71.7203 244.31C65.2103 248.31 58.8203 252.6 52.5203 256.93C44.7003 262.31 35.1603 269.77 39.9003 280.33C48.1003 298.55 74.5803 299.21 90.5303 292.87C106.48 286.53 121.53 278.12 136.53 269.87C150.71 262.03 164.76 253.947 178.68 245.62C180.974 244.287 183.257 242.917 185.53 241.51L181 233.71C164.36 244.28 147.92 255.18 131.59 266.23C104.72 284.42 77.5903 302.87 52.9403 323.97C48.4815 327.711 44.2192 331.68 40.1703 335.86C34.6603 341.67 27.9403 348.86 31.1703 357.37C37.0503 372.82 59.7403 376.98 73.6203 371.77C83.6203 368.03 92.9703 362.57 102.22 357.39C115.22 350.1 128.08 342.48 140.86 334.76C160.26 323.054 179.524 311.114 198.65 298.94L193.2 291.87L141 335.41L100 369.6L83.2003 383.6C77.6357 388.041 71.8374 392.18 65.8303 396C59.4403 400.27 53.0203 405.27 53.3403 413.67C53.5803 419.95 56.9903 425.67 61.7603 429.67C77.2303 442.44 100.27 436.67 116.55 428.87C128.94 422.87 140.28 414.58 151.29 406.42C165.45 395.93 179.19 384.87 192.75 373.61C212.244 357.397 231.377 340.757 250.15 323.69L242.63 319.31C234.92 339.52 227 360 221.75 381C218.03 395.8 220.57 411.46 232.48 422C238.88 427.68 248 430.94 255.64 434.56C268.39 440.62 281.28 446.43 294.39 451.69C305.63 456.2 317.39 460.99 329.5 462.55C334.37 463.18 339.91 463.13 343.78 459.64C347.65 456.15 348.2 450.64 347.36 445.64C345.71 435.77 339.82 423.87 332.74 416.64C329.96 413.81 326.19 411.64 322.91 409.49C317.2 405.7 311.42 402.02 305.63 398.36C297.257 393.067 288.857 387.827 280.43 382.64L282.5 387.72C284.063 376.346 286.974 365.197 291.17 354.51C293.59 348.51 296.85 341.38 302.72 338.12C310.87 333.58 321.03 331.32 329.96 328.79C335.52 327.21 333.15 318.52 327.56 320.11C317.84 322.87 307.1 325.47 298.18 330.34C291.43 334.03 287.23 341.34 284.18 348.09C279.046 359.974 275.557 372.503 273.81 385.33C273.583 386.287 273.66 387.291 274.032 388.202C274.403 389.113 275.049 389.885 275.88 390.41C291.23 399.86 306.68 409.25 321.56 419.41C327.4 423.41 331.02 428.9 334.56 436.05C336.56 440.16 339.33 445.67 338.75 450.41C338.28 454.27 334.68 454.1 331.43 453.79C321.08 452.79 310.67 448.43 301.07 444.71C288.88 439.98 276.94 434.65 265.07 429.12C257.7 425.67 250.26 422.26 243.07 418.45C230.67 411.9 227.07 397.21 230.07 384.56C235.22 363.14 243.4 342.21 251.25 321.65C252.96 317.16 246.76 314.49 243.73 317.27C229.38 330.37 214.73 343.15 199.92 355.74C175.83 376.24 151.34 397.09 124.5 413.95C110.9 422.49 93.8003 431.04 77.3403 427.3C71.6403 426.01 65.5603 422.88 63.1503 417.2C60.2803 410.41 65.6003 406.83 70.8503 403.38C76.9149 399.591 82.7578 395.457 88.3503 391L104 378L142 346.35L199.65 298.26C203.58 294.98 198.48 288.46 194.2 291.19C179.654 300.457 165.014 309.584 150.28 318.57C127.35 332.62 104.34 346.97 80.2803 359.01C69.7603 364.27 58.6003 367.87 46.9303 361.4C44.1703 359.87 40.6003 357.34 39.6103 354.11C38.4303 350.26 42.8703 346.31 45.2503 343.7C49.0593 339.613 53.0957 335.743 57.3403 332.11C80.5003 311.93 106.18 294.46 131.54 277.19C149.39 265.04 167.39 253.08 185.62 241.5C190.49 238.41 186.06 230.71 181.08 233.73C157.52 248 133.6 261.85 109.08 274.39C95.3703 281.39 80.2403 290.39 64.2403 286.89C59.0003 285.73 53.5103 283.5 50.0003 279.44C46.7103 275.68 47.3103 272.96 50.8003 269.64C56.8003 263.87 64.7403 259.44 71.8003 254.92C102.71 235.09 136.17 218.92 169.02 202.59C183.774 195.257 198.577 188.04 213.43 180.94C217.817 178.834 222.214 176.737 226.62 174.65C227.75 174.12 228.9 173.65 230.02 173.05C231.14 172.45 231.02 172.72 229.81 173.05C239.624 169.924 249.444 166.807 259.27 163.7L330.27 141.18L423 111.8L517.36 81.8603L594.58 57.3603C607.86 53.1503 621.2 49.0703 634.43 44.7203L636.25 44.1403C641.75 42.4003 639.4 33.7003 633.85 35.4603H633.8Z" fill="black"/>
<path d="M325.262 320.999L328.262 319.999L335.532 318.539L339.262 319.999L338.262 321.999L331.262 322.999L325.262 320.999Z" fill="black"/>
<path d="M380.568 440.004C383.336 448.197 383.495 456.294 381.635 462.72C379.773 469.156 375.982 473.68 370.983 475.369C365.984 477.059 360.226 475.76 354.841 471.773C349.466 467.793 344.681 461.259 341.912 453.065C339.143 444.872 338.985 436.775 340.844 430.349C342.707 423.913 346.497 419.389 351.497 417.699C356.496 416.01 362.254 417.308 367.638 421.296C373.014 425.276 377.799 431.81 380.568 440.004Z" fill="white" stroke="black" stroke-width="5"/>
<path d="M355.175 448.674L356.142 449.226L354.957 452.549C355.583 453.208 356.219 453.696 356.864 454.014C357.529 454.342 358.168 454.443 358.78 454.319C359.422 454.185 359.862 453.876 360.1 453.392C360.339 452.908 360.376 452.426 360.212 451.945C360.049 451.463 359.84 451.048 359.587 450.698C359.344 450.327 358.949 449.807 358.402 449.137C357.886 448.457 357.466 447.887 357.141 447.427C356.837 446.977 356.507 446.401 356.152 445.7C355.49 444.348 355.478 443.026 356.113 441.737C356.748 440.447 357.632 439.568 358.764 439.099C359.907 438.61 361.172 438.557 362.561 438.941L364.273 435.389C364.906 435.476 365.505 435.658 366.069 435.936C366.634 436.214 367.118 436.552 367.522 436.952C366.708 438.504 366.107 439.673 365.72 440.459C366.95 441.316 368.027 442.359 368.948 443.589C368.8 443.992 368.522 444.606 368.115 445.433C367.718 446.239 367.166 447.081 366.458 447.959C366.267 447.94 365.784 447.802 365.008 447.546C364.233 447.289 363.685 447.082 363.362 446.923L363.987 443.061C363.734 442.812 363.356 442.563 362.852 442.314C362.349 442.066 361.841 442.029 361.33 442.203C360.828 442.357 360.454 442.685 360.205 443.189C359.967 443.673 360.001 444.215 360.305 444.816C360.631 445.427 361.102 446.122 361.719 446.902C362.337 447.682 362.772 448.247 363.026 448.597C363.279 448.948 363.573 449.418 363.908 450.009C364.253 450.579 364.487 451.095 364.61 451.557C364.889 452.721 364.799 453.766 364.343 454.693C363.668 456.063 362.684 456.968 361.39 457.408C360.107 457.827 358.695 457.821 357.156 457.388L355.532 460.607C355.029 460.56 354.557 460.427 354.113 460.209C353.69 460.001 353.261 459.702 352.827 459.313C353.184 458.587 353.69 457.509 354.345 456.079C352.529 454.884 351.215 453.485 350.402 451.883C351.106 450.452 351.962 449.095 352.969 447.814C353.996 448.169 354.731 448.456 355.175 448.674Z" fill="black"/>
</g>
<defs>
<clipPath id="clip0_171_138">
<rect width="635" height="635" fill="white"/>
</clipPath>
</defs>
</svg>

<svg id="Layer_1" data-name="Layer 1" xmlns="http://www.w3.org/2000/svg" xmlns:xlink="http://www.w3.org/1999/xlink" viewBox="0 0 635 635"><defs><style>.cls-1{fill:none;}.cls-2{fill:#fff;}.cls-3{clip-path:url(#clip-path);}</style><clipPath id="clip-path"><rect class="cls-1" x="-1227.05" y="1" width="635" height="635"/></clipPath></defs><title>Artboard 1 copy 9</title><rect class="cls-2" y="1" width="639.3" height="639.3"/><path class="cls-2" d="M635,215.85,448.44,282.79s-1,41.17-4,50.61S439,374.66,432,385.07s-45.32,40.65-45.32,40.65-10.17,6.45-20.8,12-19.78-7.61-22.61-13c-4.63-8.86-3.33-21.71-.91-25.47,4.34-6.79,24.17-22.82,27.17-30s-6.06-37.46-12-44.51c-3.34-4-15.86-3.09-29-.1L347.69,131,635,39.8Z"/><g class="cls-3"><rect class="cls-2" x="-500.05" width="630" height="630"/></g><path d="M329.69,329A89.45,89.45,0,0,1,346,326.59c2.57-.08,6.43-.45,8.45,1.4,1.57,1.45,2.61,4.59,3.43,6.48a101.59,101.59,0,0,1,3.68,10.15c1.89,6.06,3.72,12.49,4.06,18.86.27,5-2.43,7.59-5.83,11.2-5,5.31-10.42,10.2-15.48,15.44-4,4.11-7,7.89-8,13.67-2.34,13.85,3.16,30.3,16,37.44,8.2,4.55,15,1,22.44-3.17,5.12-2.87,10.51-5.67,15.2-9.2,6.88-5.16,13.44-10.82,20-16.38,8.66-7.34,18.38-14.8,25.16-24,7.54-10.25,8.59-25.64,10.6-37.79s4.83-23.77,5.75-36.06c.79-10.59,1.26-21.22,1.52-31.83l-3.3,4.33,62.8-22.52,100.68-36.13,23.08-8.28c5.41-1.94,3.07-10.64-2.4-8.67L571,234,470.33,270.17l-23.08,8.28a4.68,4.68,0,0,0-3.31,4.34q-.33,13.13-1.14,26.24c-.36,5.76-.72,11.56-1.51,17.28-.57,4.11-1.83,8.05-2.6,12.12-2.56,13.41-3.32,28-8.66,40.74-3.73,8.86-13.5,15.71-20.51,21.82-8,7-16.17,13.69-24.45,20.3-.51.41-1,.85-1.55,1.23,1.86-1.31.09-.15-.37.1-1.55.86-3,1.87-4.55,2.78q-5.78,3.45-11.66,6.67c-4,2.17-7.06,3.48-11.12.79-10-6.64-16-24.51-7.29-34.15,4.48-5,9.5-9.47,14.23-14.22,3.79-3.81,8.4-8,10.66-13,2.37-5.22.95-11.82-.12-17.19a117.61,117.61,0,0,0-6.63-21.87c-2.09-5.07-4.43-11.28-9.91-13.46-8.9-3.54-20.54-.66-29.46,1.3-5.65,1.24-3.26,9.92,2.39,8.68Z"/><ellipse class="cls-2" cx="362.76" cy="446.5" rx="32.36" ry="46.54" transform="translate(-123.86 139.65) rotate(-18.67)"/><path d="M378.46,493.48c17.23-6.32,22.74-26.11,21.1-42.88-1.82-18.6-11.56-38.5-28.35-47.93-14.08-7.9-30.8-4.66-39.38,9.47-10.2,16.8-6.85,39.69,2,56.26,8.34,15.59,25.72,31,44.62,25.08,3.67-1.14,2.1-6.93-1.6-5.78C363,492,349.94,482,342.49,471.09c-9.32-13.64-13.82-32.21-8.86-48.3,4.18-13.51,16.4-22.19,30.39-16.9,14.73,5.57,24.22,21.32,27.94,35.91,3.94,15.45,2.62,39.4-15.1,45.9C373.27,489,374.82,494.82,378.46,493.48Z"/><path d="M353.82,465,347.89,432l6.63-4.11,27,20-7.93,4.92-16-12.43,4.05,19.81Z"/><path class="cls-2" d="M635,39.8l-406.5,129S101,228.56,62.82,255.48C57.32,259.36,43.42,267,43,273.74c-.6,10.33,16.95,21.6,37.45,17.65S183.26,237.6,183.26,237.6,73,307.62,43.35,339c-2.77,2.93-8.92,9.55-8.7,13.58.52,9.43,16,19.83,34.29,15.91S196.4,295.05,196.4,295.05s-87.2,72.77-116.29,97c-5.5,4.58-20.62,11.28-22,18.3-2.81,14.05,17.16,32.78,55.3,15.08S247,320.51,247,320.51s-20.48,53.61-22.43,69.3,8.13,28.47,15.81,32.36,75,37.52,94.6,36.26-1.08-34.42-5.64-38.81-51.15-33-51.15-33,6.34-43.95,22.29-52.3c5.34-2.8,20.48-7.58,28.31-9.78"/><path d="M633.8,35.46l-29,9.19L532.07,67.74,436.75,98l-96.64,30.66L263.67,152.9c-11.92,3.78-24.06,7.15-35.83,11.36-4.34,1.56-8.49,3.87-12.65,5.86q-20.7,9.87-41.29,20c-34.51,17-69.4,34-102.18,54.19-6.51,4-12.9,8.29-19.2,12.62-7.82,5.38-17.36,12.84-12.62,23.4,8.2,18.22,34.68,18.88,50.63,12.54s31-14.75,46-23q21.27-11.76,42.15-24.25,3.44-2,6.85-4.11L181,233.71c-16.64,10.57-33.08,21.47-49.41,32.52-26.87,18.19-54,36.64-78.65,57.74a168.85,168.85,0,0,0-12.77,11.89c-5.51,5.81-12.23,13-9,21.51,5.88,15.45,28.57,19.61,42.45,14.4,10-3.74,19.35-9.2,28.6-14.38,13-7.29,25.86-14.91,38.64-22.63q29.1-17.56,57.79-35.82l-5.45-7.07L141,335.41,100,369.6l-16.8,14A199.5,199.5,0,0,1,65.83,396c-6.39,4.27-12.81,9.27-12.49,17.67.24,6.28,3.65,12,8.42,16,15.47,12.77,38.51,7,54.79-.8,12.39-6,23.73-14.29,34.74-22.45,14.16-10.49,27.9-21.55,41.46-32.81q29.24-24.32,57.4-49.92l-7.52-4.38C234.92,339.52,227,360,221.75,381c-3.72,14.8-1.18,30.46,10.73,41,6.4,5.68,15.52,8.94,23.16,12.56,12.75,6.06,25.64,11.87,38.75,17.13,11.24,4.51,23,9.3,35.11,10.86,4.87.63,10.41.58,14.28-2.91s4.42-9,3.58-14c-1.65-9.87-7.54-21.77-14.62-29-2.78-2.83-6.55-5-9.83-7.15-5.71-3.79-11.49-7.47-17.28-11.13q-12.56-7.94-25.2-15.72l2.07,5.08a144.8,144.8,0,0,1,8.67-33.21c2.42-6,5.68-13.13,11.55-16.39,8.15-4.54,18.31-6.8,27.24-9.33,5.56-1.58,3.19-10.27-2.4-8.68-9.72,2.76-20.46,5.36-29.38,10.23-6.75,3.69-10.95,11-14,17.75a142.32,142.32,0,0,0-10.37,37.24,4.72,4.72,0,0,0,2.07,5.08c15.35,9.45,30.8,18.84,45.68,29,5.84,4,9.46,9.49,13,16.64,2,4.11,4.77,9.62,4.19,14.36-.47,3.86-4.07,3.69-7.32,3.38-10.35-1-20.76-5.36-30.36-9.08-12.19-4.73-24.13-10.06-36-15.59-7.37-3.45-14.81-6.86-22-10.67-12.4-6.55-16-21.24-13-33.89,5.15-21.42,13.33-42.35,21.18-62.91,1.71-4.49-4.49-7.16-7.52-4.38-14.35,13.1-29,25.88-43.81,38.47-24.09,20.5-48.58,41.35-75.42,58.21-13.6,8.54-30.7,17.09-47.16,13.35-5.7-1.29-11.78-4.42-14.19-10.1-2.87-6.79,2.45-10.37,7.7-13.82A187.5,187.5,0,0,0,88.35,391L104,378l38-31.65,57.65-48.09c3.93-3.28-1.17-9.8-5.45-7.07q-21.82,13.9-43.92,27.38c-22.93,14.05-45.94,28.4-70,40.44-10.52,5.26-21.68,8.86-33.35,2.39-2.76-1.53-6.33-4.06-7.32-7.29-1.18-3.85,3.26-7.8,5.64-10.41a148.69,148.69,0,0,1,12.09-11.59c23.16-20.18,48.84-37.65,74.2-54.92,17.85-12.15,35.85-24.11,54.08-35.69,4.87-3.09.44-10.79-4.54-7.77-23.56,14.27-47.48,28.12-72,40.66-13.71,7-28.84,16-44.84,12.5C59,285.73,53.51,283.5,50,279.44c-3.29-3.76-2.69-6.48.8-9.8,6-5.77,13.94-10.2,21-14.72,30.91-19.83,64.37-36,97.22-52.33q22.13-11,44.41-21.65,6.58-3.16,13.19-6.29c1.13-.53,2.28-1,3.4-1.6s1-.33-.21,0q14.72-4.69,29.46-9.35l71-22.52L423,111.8l94.36-29.94,77.22-24.5c13.28-4.21,26.62-8.29,39.85-12.64l1.82-.58c5.5-1.74,3.15-10.44-2.4-8.68Z"/><polygon points="325.26 321 328.26 320 335.53 318.54 339.26 320 338.26 322 331.26 323 325.26 321"/></svg>
